X:208
T:ROLL OUT THE GRAVEL
T:Roll out the Barrel with Gravel Walk section
C:Irish Traditional
R:Reel
M:C|
L:1/8
K:Em
"Em" E2~E2 BE~E2|"D" B2AF DEFD|"Em" E2~E2 BE~E2|1 "D" B2Ac "Em" BEED:|2 "D" B2Ac "Em" BE~E2||
|:"Em" e2 (3gfe bege|"D" d^cdf a2fd |1 "Em" e2 (3gfe bege|"Bm" dBA=c "Em" BE~E2:|
|2 "D" efge "Em" fde^c|"Bm" dBA=c "Em"BEEB||
|:"C" c2 gc acgc|c2 gc "G" BAGB|"C" c2 gc acga|"Am" gedc "G" BAGB|!
"C" c2 gc acgc|c2 gc "G" BAGB|"Am" ABcd e3 a|"G" gedc BAGF:|!
